assets/azuretemplatespecs/original.svg

<svg height="18" viewBox="0 0 18 18" width="18" xmlns="http://www.w3.org/2000/svg" xmlns:xlink="http://www.w3.org/1999/xlink"><linearGradient id="a" gradientUnits="userSpaceOnUse" x1="9" x2="9" y1="16.181" y2="1.819"><stop offset="0" stop-color="#198ab3"/><stop offset=".619" stop-color="#31d0f1"/><stop offset="1" stop-color="#32d4f5"/></linearGradient><path d="m6.216.5h-3.371a1.026 1.026 0 0 0 -1.026 1.026v3.374h2.052v-2.348h2.345zm8.939 0h-3.37v2.052h2.344v2.348h2.052v-3.374a1.026 1.026 0 0 0 -1.026-1.026m-1.026 12.6v2.345h-2.344v2.055h3.37a1.026 1.026 0 0 0 1.026-1.026v-3.374zm-10.258 2.348v-2.348h-2.052v3.371a1.026 1.026 0 0 0 1.026 1.029h3.371v-2.052z" fill="#32bedd"/><path d="m3.724 16.181h10.552a.59.59 0 0 0 .586-.586v-13.195a.59.59 0 0 0 -.586-.586h-10.552a.59.59 0 0 0 -.586.586v13.2a.59.59 0 0 0 .586.581" fill="url(#a)"/><path d="m4.6 15.009h8.8a.294.294 0 0 0 .293-.293v-11.431a.294.294 0 0 0 -.293-.294h-8.8a.294.294 0 0 0 -.293.294v11.431a.294.294 0 0 0 .293.293" fill="#fff"/><path d="m6.655 13.25h4.69a.294.294 0 0 0 .293-.293v-1.319a.294.294 0 0 0 -.293-.293h-4.69a.294.294 0 0 0 -.293.293v1.319a.294.294 0 0 0 .293.293" fill="#5e9624"/><path d="m6.655 9.953h4.69a.294.294 0 0 0 .293-.293v-1.319a.294.294 0 0 0 -.293-.294h-4.69a.294.294 0 0 0 -.293.294v1.319a.294.294 0 0 0 .293.293" fill="#76bc2d"/><path d="m6.655 6.655h4.69a.294.294 0 0 0 .293-.293v-1.319a.294.294 0 0 0 -.293-.293h-4.69a.294.294 0 0 0 -.293.293v1.319a.294.294 0 0 0 .293.293" fill="#86d633"/>​</svg>

<svg xmlns="http://www.w3.org/2000/svg" width="18" height="18" viewBox="0 0 18 18"><linearGradient id="a" x1="9" x2="9" y1="16.181" y2="1.819" gradientUnits="userSpaceOnUse"><stop offset="0" stop-color="#198ab3"/><stop offset=".619" stop-color="#31d0f1"/><stop offset="1" stop-color="#32d4f5"/></linearGradient><path fill="#32bedd" d="M6.216.5H2.845a1.026 1.026 0 0 0-1.026 1.026V4.9h2.052V2.552h2.345zm8.939 0h-3.37v2.052h2.344V4.9h2.052V1.526A1.026 1.026 0 0 0 15.155.5m-1.026 12.6v2.345h-2.344V17.5h3.37a1.026 1.026 0 0 0 1.026-1.026V13.1zM3.871 15.448V13.1H1.819v3.371A1.026 1.026 0 0 0 2.845 17.5h3.371v-2.052z"/><path fill="url(#a)" d="M3.724 16.181h10.552a.59.59 0 0 0 .586-.586V2.4a.59.59 0 0 0-.586-.586H3.724a.59.59 0 0 0-.586.586v13.2a.59.59 0 0 0 .586.581"/><path fill="#fff" d="M4.6 15.009h8.8a.294.294 0 0 0 .293-.293V3.285a.294.294 0 0 0-.293-.294H4.6a.294.294 0 0 0-.293.294v11.431a.294.294 0 0 0 .293.293"/><path fill="#5e9624" d="M6.655 13.25h4.69a.294.294 0 0 0 .293-.293v-1.319a.294.294 0 0 0-.293-.293h-4.69a.294.294 0 0 0-.293.293v1.319a.294.294 0 0 0 .293.293"/><path fill="#76bc2d" d="M6.655 9.953h4.69a.294.294 0 0 0 .293-.293V8.341a.294.294 0 0 0-.293-.294h-4.69a.294.294 0 0 0-.293.294V9.66a.294.294 0 0 0 .293.293"/><path fill="#86d633" d="M6.655 6.655h4.69a.294.294 0 0 0 .293-.293V5.043a.294.294 0 0 0-.293-.293h-4.69a.294.294 0 0 0-.293.293v1.319a.294.294 0 0 0 .293.293"/>​</svg>
